X:165
T:Edelweiss
C: tune: Richard Rodgers
C: words: Oscar hammerstein II
M:3/4
R:
F:http://blackrosetheband.googlepages.com/ABCTUNES.ABC May 2009
K:G
"G"B2d "D7"a3|"G"g2d "C"c3|"G"B2 B "Em"Bcd|"C"e3 "D"d3|
"G"B2d "D7"a3|"G"g2d "C"c3|"G"B2 d "D"def|"G"g3 g3|
"D"a2 d "D7"fed|"G"B2d "Em?"g3|"C"e2g a2g|"D"f3 d3"D7"|
"G"B2d "D7"a3|"G"g2d "C"c3|"G"B2d "D"def|"G"g3 g3||
